assets/Beer mug/Flat/beer_mug_flat.svg

<svg width="32" height="32" viewBox="0 0 32 32" fill="none" xmlns="http://www.w3.org/2000/svg">
<path fill-rule="evenodd" clip-rule="evenodd" d="M15 14.5C15 12.567 16.567 11 18.5 11H25.5C27.433 11 29 12.567 29 14.5V21.5C29 23.433 27.433 25 25.5 25H18.5C16.567 25 15 23.433 15 21.5V14.5ZM18.5 14C18.2239 14 18 14.2239 18 14.5V21.5C18 21.7761 18.2239 22 18.5 22H25.5C25.7761 22 26 21.7761 26 21.5V14.5C26 14.2239 25.7761 14 25.5 14H18.5Z" fill="#83CBFF"/>
<path d="M3 9V27.0602C3 28.7202 4.38 30.0602 6.07 30.0602H19.96C21.65 30.0602 23.03 28.7102 23.03 27.0602L23 9L13 7L3 9Z" fill="#AEDDFF"/>
<path d="M5 27.165V9.00615L12.9846 8L21 9.00615V27.165C21 27.6278 20.6198 28 20.1471 28H5.85292C5.38022 28 5 27.6278 5 27.165Z" fill="#F9C23C"/>
<path d="M9 24.0307C9 24.5638 9.45 25 10 25C10.55 25 11 24.5638 11 24.0307V13.9693C11 13.4362 10.55 13 10 13C9.45 13 9 13.4362 9 13.9693V24.0307Z" fill="#FCD53F"/>
<path d="M15 24.0307C15 24.5638 15.45 25 16 25C16.55 25 17 24.5638 17 24.0307V13.9693C17 13.4362 16.55 13 16 13C15.45 13 15 13.4362 15 13.9693V24.0307Z" fill="#FCD53F"/>
<path d="M18.4499 12.4301C18.9138 12.4301 19.2899 12.054 19.2899 11.5901C19.2899 11.1262 18.9138 10.7501 18.4499 10.7501C17.986 10.7501 17.6099 11.1262 17.6099 11.5901C17.6099 12.054 17.986 12.4301 18.4499 12.4301Z" fill="#FF9F2E"/>
<path d="M18.4499 21.1701C18.7703 21.1701 19.0299 20.9105 19.0299 20.5901C19.0299 20.2698 18.7703 20.0101 18.4499 20.0101C18.1296 20.0101 17.8699 20.2698 17.8699 20.5901C17.8699 20.9105 18.1296 21.1701 18.4499 21.1701Z" fill="#FF9F2E"/>
<path d="M13.37 15.4401C13.37 15.7604 13.1103 16.0201 12.79 16.0201C12.4696 16.0201 12.21 15.7604 12.21 15.4401C12.21 15.1198 12.4696 14.8601 12.79 14.8601C13.1103 14.8601 13.37 15.1198 13.37 15.4401Z" fill="#FF9F2E"/>
<path d="M3 8.5C3 6.01472 5.01472 4 7.5 4C9.98528 4 12 6.01472 12 8.5V9H3V8.5Z" fill="#E6E6E6"/>
<path d="M14 8.5C14 6.01472 16.0147 4 18.5 4C20.9853 4 23 6.01472 23 8.5V9H14V8.5Z" fill="#E6E6E6"/>
<path d="M18 7.5C18 8.02001 17.9278 8.52317 17.793 9H14.5C13.6716 9 13 9.67157 13 10.5V12.5C13 14.1569 11.6569 15.5 10 15.5C8.34315 15.5 7 14.1569 7 12.5V7.5C7 4.46243 9.46243 2 12.5 2C15.5376 2 18 4.46243 18 7.5Z" fill="#F4F4F4"/>
<path d="M14.3301 4.47011C14.5842 4.47011 14.7901 4.26416 14.7901 4.01011C14.7901 3.75606 14.5842 3.55011 14.3301 3.55011C14.0761 3.55011 13.8701 3.75606 13.8701 4.01011C13.8701 4.26416 14.0761 4.47011 14.3301 4.47011Z" fill="#BEBEBE"/>
<path d="M15.7501 6.30013C16.0042 6.30013 16.2101 6.09418 16.2101 5.84013C16.2101 5.58608 16.0042 5.38013 15.7501 5.38013C15.496 5.38013 15.2901 5.58608 15.2901 5.84013C15.2901 6.09418 15.496 6.30013 15.7501 6.30013Z" fill="#BEBEBE"/>
<path d="M14.0401 6.01011C14.0401 6.26416 13.8342 6.47011 13.5801 6.47011C13.3261 6.47011 13.1201 6.26416 13.1201 6.01011C13.1201 5.75606 13.3261 5.55011 13.5801 5.55011C13.8342 5.55011 14.0401 5.75606 14.0401 6.01011Z" fill="#BEBEBE"/>
</svg>

<svg xmlns="http://www.w3.org/2000/svg" width="32" height="32" fill="none"><path fill="#83CBFF" fill-rule="evenodd" d="M15 14.5a3.5 3.5 0 0 1 3.5-3.5h7a3.5 3.5 0 0 1 3.5 3.5v7a3.5 3.5 0 0 1-3.5 3.5h-7a3.5 3.5 0 0 1-3.5-3.5v-7Zm3.5-.5a.5.5 0 0 0-.5.5v7a.5.5 0 0 0 .5.5h7a.5.5 0 0 0 .5-.5v-7a.5.5 0 0 0-.5-.5h-7Z" clip-rule="evenodd"/><path fill="#AEDDFF" d="M3 9v18.06c0 1.66 1.38 3 3.07 3h13.89c1.69 0 3.07-1.35 3.07-3L23 9 13 7 3 9Z"/><path fill="#F9C23C" d="M5 27.165V9.006L12.985 8 21 9.006v18.159c0 .463-.38.835-.853.835H5.853A.842.842 0 0 1 5 27.165Z"/><path fill="#FCD53F" d="M9 24.03c0 .534.45.97 1 .97s1-.436 1-.97V13.97c0-.534-.45-.97-1-.97s-1 .436-1 .97v10.06ZM15 24.03c0 .534.45.97 1 .97s1-.436 1-.97V13.97c0-.534-.45-.97-1-.97s-1 .436-1 .97v10.06Z"/><path fill="#FF9F2E" d="M18.45 12.43a.84.84 0 1 0 0-1.68.84.84 0 0 0 0 1.68ZM18.45 21.17a.58.58 0 1 0 0-1.16.58.58 0 0 0 0 1.16ZM13.37 15.44a.58.58 0 1 1-1.16 0 .58.58 0 0 1 1.16 0Z"/><path fill="#E6E6E6" d="M3 8.5a4.5 4.5 0 0 1 9 0V9H3v-.5ZM14 8.5a4.5 4.5 0 1 1 9 0V9h-9v-.5Z"/><path fill="#F4F4F4" d="M18 7.5c0 .52-.072 1.023-.207 1.5H14.5a1.5 1.5 0 0 0-1.5 1.5v2a3 3 0 1 1-6 0v-5a5.5 5.5 0 1 1 11 0Z"/><path fill="#BEBEBE" d="M14.33 4.47a.46.46 0 1 0 0-.92.46.46 0 0 0 0 .92ZM15.75 6.3a.46.46 0 1 0 0-.92.46.46 0 0 0 0 .92ZM14.04 6.01a.46.46 0 1 1-.92 0 .46.46 0 0 1 .92 0Z"/></svg>
